svgs/sharp-light/circle-1.svg

<svg xmlns="http://www.w3.org/2000/svg" viewBox="0 0 512 512"><!--! Font Awesome Pro 6.6.0 by @fontawesome - https://fontawesome.com License - https://fontawesome.com/license (Commercial License) Copyright 2024 Fonticons, Inc. --><path d="M256 32a224 224 0 1 1 0 448 224 224 0 1 1 0-448zm0 480A256 256 0 1 0 256 0a256 256 0 1 0 0 512zM196.9 197.3L240 168.6 240 352l-48 0-16 0 0 32 16 0 64 0 64 0 16 0 0-32-16 0-48 0 0-208 0-16-16 0-8 0-4.8 0-4 2.7L184 167.4l0 38.5 12.9-8.6z"/></svg>

<svg xmlns="http://www.w3.org/2000/svg" viewBox="0 0 512 512"><!--! Font Awesome Pro 6.4.0 by @fontawesome - https://fontawesome.com License - https://fontawesome.com/license (Commercial License) Copyright 2023 Fonticons, Inc. --><path d="M256 32a224 224 0 1 1 0 448 224 224 0 1 1 0-448zm0 480A256 256 0 1 0 256 0a256 256 0 1 0 0 512zM196.9 197.3L240 168.6V352H192 176v32h16 64 64 16V352H320 272V144 128H256h-8-4.8l-4 2.7L184 167.4v38.5l12.9-8.6z"/></svg>
